images/Rubic.svg

<svg height="250" viewBox="0 0 250 250" width="250" xmlns="http://www.w3.org/2000/svg"><path d="m0 0h250v250h-250z" fill="#fff"/><g fill="#4aa956"><path d="m76.5 202.925781-8.707031-13.121093h-5.449219v13.121093h-8.144531v-41.261719h12.527343c5.128907 0 9.097657 1.25 11.90625 3.753907 2.84375 2.46875 4.269532 5.851562 4.269532 10.148437 0 2.542969-.542969 4.933594-1.628906 7.175782-1.050782 2.203124-2.679688 3.941406-4.886719 5.214843l9.605469 14.96875zm-14.15625-20.96875h5.785156c2.207032 0 3.820313-.636719 4.832032-1.90625 1.007812-1.308593 1.515624-2.710937 1.515624-4.203125 0-1.496094-.429687-2.917968-1.292968-4.261718-.859375-1.382813-2.527344-2.074219-5-2.074219h-5.839844zm0 0"/><path d="m116.125 178.425781v24.5h-7.132812l-.558594-3.925781c-.863282 1.570312-2.082032 2.820312-3.652344 3.757812-1.535156.894532-3.351562 1.34375-5.449219 1.34375-2.246093 0-4.117187-.691406-5.617187-2.074218-1.496094-1.382813-2.265625-3.140625-2.300782-5.269532v-18.332031h7.863282v15.417969c.113281 2.390625 1.214844 3.585938 3.3125 3.585938 1.722656 0 3.089844-.839844 4.101562-2.523438 1.046875-1.679688 1.574219-3.847656 1.574219-6.5v-9.980469zm0 0"/><path d="m141.402344 177.191406c2.132812 0 4.082031.523438 5.839844 1.570313 1.796874 1.007812 3.222656 2.484375 4.269531 4.429687 1.050781 1.941406 1.574219 4.261719 1.574219 6.949219 0 2.691406-.582032 5.066406-1.742188 7.121094-1.160156 2.019531-2.714844 3.589843-4.664062 4.710937-1.945313 1.082032-4.0625 1.625-6.34375 1.625-3.335938 0-6.085938-1.046875-8.257813-3.140625v2.46875h-7.863281v-44.234375h7.808594v21.414063c1.046874-.859375 2.375-1.550781 3.984374-2.074219 1.613282-.558594 3.410157-.839844 5.394532-.839844zm-2.808594 19.789063c1.160156 0 2.226562-.296875 3.203125-.894531 1.007813-.597657 1.8125-1.421876 2.414063-2.46875.597656-1.082032.898437-2.261719.898437-3.53125 0-1.945313-.636719-3.550782-1.910156-4.820313-1.273438-1.273437-2.808594-1.90625-4.605469-1.90625-1.535156 0-2.882812.355469-4.042969 1.0625-1.164062.710937-1.988281 1.664063-2.472656 2.859375v6c1.347656 2.46875 3.519531 3.699219 6.515625 3.699219zm0 0"/><path d="m167.128906 178.425781v24.5h-7.863281v-24.5zm-8.035156-8.691406c0-1.121094.433594-2.054687 1.292969-2.800781.898437-.785156 1.910156-1.179688 3.035156-1.179688 1.085937 0 2.058594.394532 2.917969 1.179688.863281.746094 1.292968 1.679687 1.292968 2.800781s-.429687 2.054687-1.292968 2.804687c-.859375.746094-1.832032 1.121094-2.917969 1.121094-1.125 0-2.136719-.375-3.035156-1.121094-.859375-.75-1.292969-1.683593-1.292969-2.804687zm0 0"/><path d="m196.0625 200.738281c-1.085938.859375-2.449219 1.550781-4.097656 2.074219-1.609375.523438-3.203125.785156-4.773438.785156-4.269531 0-7.660156-1.140625-10.167968-3.421875-2.472657-2.316406-3.707032-5.492187-3.707032-9.527343 0-2.617188.597656-4.898438 1.796875-6.839844 1.238281-1.980469 2.847657-3.476563 4.832031-4.488282 1.984376-1.042968 4.117188-1.566406 6.402344-1.566406 4.082032 0 7.394532 1.082032 9.941406 3.25l-3.820312 5.046875c-1.609375-1.273437-3.40625-1.90625-5.390625-1.90625-1.648437 0-3.050781.617188-4.214844 1.847657-1.121093 1.234374-1.683593 2.785156-1.683593 4.65625 0 1.867187.617187 3.4375 1.855468 4.707031 1.234375 1.234375 2.84375 1.851562 4.828125 1.851562 1.722657 0 3.144531-.46875 4.269531-1.402343zm0 0"/><path d="m176.757812 60.136719-52.109374-30.351563-50.808594 29.804688-.109375 60.042968 51.242187 30.351563 51.785156-29.695313zm-52-21.179688 38.484376 22.488281-38.269532 22.488282-38.484375-22.488282zm-4.433593 98.582031-38.703125-22.382812v-44.757812l38.597656 22.488281v44.652343zm9.945312-43.996093 38.597657-22.492188v44.652344l-38.597657 22.597656zm0 0"/></g></svg>

<svg xmlns="http://www.w3.org/2000/svg" xmlns:xlink="http://www.w3.org/1999/xlink" width="250px" height="250px" viewBox="0 0 250 250" version="1.1">
<g id="surface1">
<rect x="0" y="0" width="250" height="250" style="fill:rgb(100%,100%,100%);fill-opacity:1;stroke:none;"/>
<path style=" stroke:none;fill-rule:nonzero;fill:rgb(29.019609%,66.274512%,33.725491%);fill-opacity:1;" d="M 76.5 202.925781 L 67.792969 189.804688 L 62.34375 189.804688 L 62.34375 202.925781 L 54.199219 202.925781 L 54.199219 161.664062 L 66.726562 161.664062 C 71.855469 161.664062 75.824219 162.914062 78.632812 165.417969 C 81.476562 167.886719 82.902344 171.269531 82.902344 175.566406 C 82.902344 178.109375 82.359375 180.5 81.273438 182.742188 C 80.222656 184.945312 78.59375 186.683594 76.386719 187.957031 L 85.992188 202.925781 Z M 62.34375 181.957031 L 68.128906 181.957031 C 70.335938 181.957031 71.949219 181.320312 72.960938 180.050781 C 73.96875 178.742188 74.476562 177.339844 74.476562 175.847656 C 74.476562 174.351562 74.046875 172.929688 73.183594 171.585938 C 72.324219 170.203125 70.65625 169.511719 68.183594 169.511719 L 62.34375 169.511719 Z M 62.34375 181.957031 "/>
<path style=" stroke:none;fill-rule:nonzero;fill:rgb(29.019609%,66.274512%,33.725491%);fill-opacity:1;" d="M 116.125 178.425781 L 116.125 202.925781 L 108.992188 202.925781 L 108.433594 199 C 107.570312 200.570312 106.351562 201.820312 104.78125 202.757812 C 103.246094 203.652344 101.429688 204.101562 99.332031 204.101562 C 97.085938 204.101562 95.214844 203.410156 93.714844 202.027344 C 92.21875 200.644531 91.449219 198.886719 91.414062 196.757812 L 91.414062 178.425781 L 99.277344 178.425781 L 99.277344 193.84375 C 99.390625 196.234375 100.492188 197.429688 102.589844 197.429688 C 104.3125 197.429688 105.679688 196.589844 106.691406 194.90625 C 107.738281 193.226562 108.265625 191.058594 108.265625 188.40625 L 108.265625 178.425781 Z M 116.125 178.425781 "/>
<path style=" stroke:none;fill-rule:nonzero;fill:rgb(29.019609%,66.274512%,33.725491%);fill-opacity:1;" d="M 141.402344 177.191406 C 143.535156 177.191406 145.484375 177.714844 147.242188 178.761719 C 149.039062 179.769531 150.464844 181.246094 151.511719 183.191406 C 152.5625 185.132812 153.085938 187.453125 153.085938 190.140625 C 153.085938 192.832031 152.503906 195.207031 151.34375 197.261719 C 150.183594 199.28125 148.628906 200.851562 146.679688 201.972656 C 144.734375 203.054688 142.617188 203.597656 140.335938 203.597656 C 137 203.597656 134.25 202.550781 132.078125 200.457031 L 132.078125 202.925781 L 124.214844 202.925781 L 124.214844 158.691406 L 132.023438 158.691406 L 132.023438 180.105469 C 133.070312 179.246094 134.398438 178.554688 136.007812 178.03125 C 137.621094 177.472656 139.417969 177.191406 141.402344 177.191406 Z M 138.59375 196.980469 C 139.753906 196.980469 140.820312 196.683594 141.796875 196.085938 C 142.804688 195.488281 143.609375 194.664062 144.210938 193.617188 C 144.808594 192.535156 145.109375 191.355469 145.109375 190.085938 C 145.109375 188.140625 144.472656 186.535156 143.199219 185.265625 C 141.925781 183.992188 140.390625 183.359375 138.59375 183.359375 C 137.058594 183.359375 135.710938 183.714844 134.550781 184.421875 C 133.386719 185.132812 132.5625 186.085938 132.078125 187.28125 L 132.078125 193.28125 C 133.425781 195.75 135.597656 196.980469 138.59375 196.980469 Z M 138.59375 196.980469 "/>
<path style=" stroke:none;fill-rule:nonzero;fill:rgb(29.019609%,66.274512%,33.725491%);fill-opacity:1;" d="M 167.128906 178.425781 L 167.128906 202.925781 L 159.265625 202.925781 L 159.265625 178.425781 Z M 159.09375 169.734375 C 159.09375 168.613281 159.527344 167.679688 160.386719 166.933594 C 161.285156 166.148438 162.296875 165.753906 163.421875 165.753906 C 164.507812 165.753906 165.480469 166.148438 166.339844 166.933594 C 167.203125 167.679688 167.632812 168.613281 167.632812 169.734375 C 167.632812 170.855469 167.203125 171.789062 166.339844 172.539062 C 165.480469 173.285156 164.507812 173.660156 163.421875 173.660156 C 162.296875 173.660156 161.285156 173.285156 160.386719 172.539062 C 159.527344 171.789062 159.09375 170.855469 159.09375 169.734375 Z M 159.09375 169.734375 "/>
<path style=" stroke:none;fill-rule:nonzero;fill:rgb(29.019609%,66.274512%,33.725491%);fill-opacity:1;" d="M 196.0625 200.738281 C 194.976562 201.597656 193.613281 202.289062 191.964844 202.8125 C 190.355469 203.335938 188.761719 203.597656 187.191406 203.597656 C 182.921875 203.597656 179.53125 202.457031 177.023438 200.175781 C 174.550781 197.859375 173.316406 194.683594 173.316406 190.648438 C 173.316406 188.03125 173.914062 185.75 175.113281 183.808594 C 176.351562 181.828125 177.960938 180.332031 179.945312 179.320312 C 181.929688 178.277344 184.0625 177.753906 186.347656 177.753906 C 190.429688 177.753906 193.742188 178.835938 196.289062 181.003906 L 192.46875 186.050781 C 190.859375 184.777344 189.0625 184.144531 187.078125 184.144531 C 185.429688 184.144531 184.027344 184.761719 182.863281 185.992188 C 181.742188 187.226562 181.179688 188.777344 181.179688 190.648438 C 181.179688 192.515625 181.796875 194.085938 183.035156 195.355469 C 184.269531 196.589844 185.878906 197.207031 187.863281 197.207031 C 189.585938 197.207031 191.007812 196.738281 192.132812 195.804688 Z M 196.0625 200.738281 "/>
<path style=" stroke:none;fill-rule:nonzero;fill:rgb(29.019609%,66.274512%,33.725491%);fill-opacity:1;" d="M 176.757812 60.136719 L 124.648438 29.785156 L 73.839844 59.589844 L 73.730469 119.632812 L 124.972656 149.984375 L 176.757812 120.289062 Z M 124.757812 38.957031 L 163.242188 61.445312 L 124.972656 83.933594 L 86.488281 61.445312 Z M 120.324219 137.539062 L 81.621094 115.15625 L 81.621094 70.398438 L 120.21875 92.886719 L 120.21875 137.539062 Z M 130.269531 93.542969 L 168.867188 71.050781 L 168.867188 115.703125 L 130.269531 138.300781 Z M 130.269531 93.542969 "/>
</g>
</svg>
